X:1
T:Jesus of Nazareth Passeth By
T:Theodore Edson Perkins
T:Jesus of Nazareth Passeth By
T:Public Domain
T:Public Domain
T:Public Domain
C:Theodore Edson Perkins
Z:Public Domain
%%score ( 1 2 ) 3
L:1/8
M:6/8
K:G
V:1 treble 
V:2 treble 
V:3 bass 
V:1
 D | D2 [DG] [DG]2 [FA] | [GB]2 [Gc] [Gd]2 [Ge] | [Gd]2 [GB] (G>F)[DG] | [FA]2 [GB] [FA]2 D | %5
w: 1.~What|this ea- ger, anx-|throng, Which moves with|bu- sy haste * a-|These wond- rous gath-|
w: 2.~Who|this Je- sus? why|He The ci- ty|move so might- * i-|A pass- ing strang-|
w: 3.~Je-|’tis He Who once|low Man’s path- way|trod, ’mid pain * and|And bur- dened ones,|
w: 4.~A-|He comes! From place|place His ho- ly|foot- prints we * can|He paus- eth at|
w: 5.~Ho!|ye hea- vy la-|come! Here’s par- don,|com- fort, rest * and|Ye wan- d’rers from|
w: 6.~But|you still His call|fuse, And all His|wond- rous love * a-|Soon will He sad-|
 D2 [DG] [DG]2 [FA] | [GB]2 [Gc] [Gd]2 [Ge] | [Gd]2 [GB] (G>F)[DG] | [GB]2 [FA] G2 [GB] | %9
w: day by day, What|this strange com- mo-|tion, pray? In * ac-|hushed the throng re-|
w: has He skill To|the mul- ti- tude|at will? A- * gain|stir- ring tones re-|
w: e’er He came, Brought|their sick, and deaf|and lame; The * blind|joiced to hear the|
w: thresh- old— nay, He|ters— con- de- scends|to stay: Shall * we|glad- ly raise the|
w: Fa- ther’s face, Re-|ac- cept His prof-|fered grace; Ye * tempt-|ones, there’s ref- uge|
w: from you turn, Your|ter prayer for par-|don spurn, “Too * late!|late!” will be the|
 [FA]2 [GB] [Ac]2 [FA] | [GB]2 [Gc] [Gd]3 | [DG]>[DG][DG] [DG]>[DF]G | [FA]2 [GB] [FA]2 D | %13
w: “Je- sus of Naz-|a- reth pas-|seth by.” In ac- cents hushed|throng re- ply, “Je-|
w: “Je- sus of Naz-|a- reth pas-|seth by.” A- gain the stir-|tones re- ply, “Je-|
w: “Je- sus of Naz-|a- reth pas-|seth by.” The blind re- joiced|hear the cry, “Je-|
w: “Je- sus of Naz-|a- reth pas-|seth by.” Shall we not glad-|raise the cry? “Je-|
w: “Je- sus of Naz-|a- reth pas-|seth by.” Ye tempt- ed ones,|ref- uge nigh: “Je-|
w: “Je- sus of Naz-|a- reth has|passed by.” “Too late! too late!”|be the cry— “Je-|
 D2 [DG] [DG]2 [FA] | [GB]2 [Gc] [Gd]3 | [Gd]>[Ge][Gd] [Gd][GB]G | [GB]2 [FA] G2 |] %17
w: of Naz- a- reth|seth by.” *|||
w: of Naz- a- reth|seth by.” *|||
w: of Naz- a- reth|seth by.” *|||
w: of Naz- a- reth|seth by.” *|||
w: of Naz- a- reth|seth by.” *|||
w: of Naz- a- reth|passed by.” *|||
V:2
 D | D2 x4 | x6 | x3 D2 x | x5 D | D2 x4 | x6 | x3 D2 x | x3 G2 x | x6 | x6 | x5 G | x5 D | D2 x4 | %14
w: means|ious||long—|’rings|means||cents|ply,|||the|sus|pas-|
w: is|should||ly?|er,|move||the|ply,|||ring|sus|pas-|
w: sus!|be-||woe;|wher-|out||re-|cry,|||to|sus|pas-|
w: gain|to||trace;|our|en-||not|cry?|||ly|sus|pas-|
w: all|den,||home:|a|turn,||ed|nigh:|||there’s|sus|pas-|
w: if|re-||buse,|ly|bit-||too|cry—|||will|sus|has|
 x6 | x5 G | x3 G2 |] %17
w: |||
w: |||
w: |||
w: |||
w: |||
w: |||
V:3
 [G,B,] | [G,B,]2 [G,B,] [G,B,]2 [D,D] | [G,D]2 [G,A,] [G,B,]2 [G,C] | %3
 [G,B,]2 [G,D] ([B,D]>[A,C])[G,B,] | [D,D]2 [D,D] [D,D]2 [G,B,] | [G,B,]2 [G,B,] [G,B,]2 [D,D] | %6
 [G,D]2 [G,A,] [G,B,]2 [G,C] | [G,B,]2 [G,D] ([B,D]>[A,C])[G,B,] | [D,D]2 [D,C] [G,,B,]2 [G,D] | %9
 [D,D]2 [D,D] [D,D]2 [D,D] | [G,D]2 [G,A,] [G,B,]3 | [G,B,]>[G,B,][G,B,] [B,D]>[A,C][G,B,] | %12
 [D,D]2 [D,D] [D,D]2 [F,C] | [G,B,]2 [G,B,] [G,B,]2 [D,D] | [G,D]2 [G,A,] [G,B,]3 | %15
 [G,B,]>[G,C][G,B,] [G,B,][G,D][G,B,] | [D,D]2 [D,C] [G,,B,]2 |] %17

